X:1
T:Title
%%score { ( 1 3 ) | ( 2 4 ) }
L:1/8
Q:1/4=100
M:4/4
K:Db
V:1 treble nm="Grand Piano"
V:3 treble 
V:2 bass 
V:4 bass 
V:1
 [A,FA]2 [A,DF]>[EG] [A,FA]2 [Fd][Fd] | dc[GB][Gc] [Fd]2 [FA]2 | [DF]2 [DF]>[EG] [FA]2 [FA][FA] | %3
w: H.~P.~Danks * * * * *|||
 [GB]A [A,EG]>[A,DF] [A,CE]4 | [A,DF]2 [A,DF]>[A,EG] [A,FA]2 [FA][FA] | %5
w: ||
 [_F=G][=FA] [Fd]>[Ac] [Ac]2 B2 | B2 c>B A2 FA | [FA]G [A,DF]>[K:bass][G,CE] [F,D]4 | %8
w: |||
 [CE]2 [CF]>[C=G] [CA]2 [DB][Ec] | cB [FB]>[B,F] [B,FA]2 [B,E=G]2 | [A,EA]2 B>B c2 BA | %11
w: |||
 =G2 [=DF]>[DF] z2 _D2 | [CE]2 [CF]>[C=G] [CA]2 [DB][Ec] | ce [Fd]>F [Fc]2 [FB]2 | %14
w: |||
 [FA]2 [Af]>[Af] [Ae]2 [CA][DAB] | [EAc]2 [D=GB]>[CA] [CA]4 | %16
w: ||
 [DFA]2 [A,DF]>[A,EG] [A,FA]2 [Fd][Fd] | dc [GB]>[Gc] [Fd]2 [FA]2 | %18
w: ||
 [DF]2 [DF]>[EG] [FA]2 [FA][FA] | [GB]A [A,EG]>[A,DF] [A,CE]4 | %20
w: ||
 [A,DF]2 [A,DF]>[A,EG] [A,FA]2 [FA][FA] | [_F=G][=FA] [Fd]>[Fc] [Ac]2 B2 | B2 c>B A2 df | %23
w: |||
 e2 B>c [Fd]4 |] %24
w: |
V:2
 D,2 D,>D, D,2 [D,A,][D,A,] | [E,A,]2 [A,,A,][A,,A,] [D,A,]2 [D,D]2 | %2
 [D,A,]2 [D,A,]>[D,A,] [D,D]2 [D,D][D,D] | [D,D]2 z2 z4 | D,2 D,>D, D,2 [D,D][D,D] | %5
 [D,D]2 [D,D]>[D,D] [G,D]2 [G,DG]2 | [G,D_F]2 [G,DF]>[G,DF][K:treble] [A,D=F]2 [A,D][A,F] | %7
 z E A,,>A,, D,4 | [A,,A,]2 [A,,A,]>[A,,A,] [A,,A,]2 [A,,A,][A,,A,] | %9
 [D,A,]2 [=D,A,]>D, E,2 E,_D, | C,2 [E,=G,E]>[E,G,E] [A,E]2 [G,B,E][A,CE] | %11
 [B,E]2 [B,,A,]>[B,,A,] [E,=G,]4 | [A,,A,]2 [A,,A,]>[A,,A,] [A,,A,]2 [A,,A,][A,,A,] | %13
 [D,A,]2 [D,B,]>[D,B,] [D,B,]2 [D,B,]2 | [=D,B,]2 [D,B,]>[D,B,] [E,C]2 E,E, | E,2 E,>A, z2 G2 | %16
 D,2 D,>D, D,2 [D,A,][D,A,] | [E,A,]2 [A,,A,]>[A,,A,] [D,A,]2 [D,D]2 | %18
 [D,A,]2 [D,A,]>[D,A,] [D,A,]2 [D,D][D,D] | [D,D]2 z2 z4 | D,2 D,>D, D,2 [D,D][D,D] | %21
 [D,D]2 [D,D]>[D,D] [G,D]2 [G,DG]2 | [G,D_F]2 [G,DF]>[G,DF][K:treble] [A,D=F]2 [A,DF][A,DA] | %23
 [A,CG]2 [A,DG]>[A,EG][K:bass] [D,D]4 |] %24
V:3
 x8 | G2 z2 z4 | x8 | x8 | x8 | x8 | x8 | x7/2[K:bass] x9/2 | x8 | F2 z2 z4 | x8 | z4 E4 | x8 | %13
 F2 z2 z4 | x8 | x8 | x8 | G2 z2 z4 | x8 | x8 | x8 | x8 | x8 | x8 |] %24
V:4
 x8 | x8 | x8 | z F C,>D, A,,4 | x8 | x8 | x4[K:treble] x4 | [A,,A,]2 z2 z4 | x8 | x8 | x8 | x8 | %12
 x8 | x8 | x8 | z4 A,4 | x8 | x8 | x8 | z F C,>D, A,,4 | x8 | x8 | x4[K:treble] x4 | %23
 x4[K:bass] x4 |] %24

